src/pages/elements/images/hyphen-en-dash-right-desktop.svg

<svg xmlns="http://www.w3.org/2000/svg" viewBox="0 0 448 248"><g fill="none" fill-rule="evenodd"><path fill="#FFF" d="M0 0h448v248H0z"/><path d="M132.94 69h-2.88V50.424h2.88v3.024h.144c.9-2.088 2.484-3.456 5.256-3.456 3.816 0 6.228 2.592 6.228 7.092V69h-2.88V57.588c0-3.312-1.44-5.004-4.212-5.004-2.304 0-4.536 1.152-4.536 3.528V69zm24.588.432c-4.968 0-8.388-3.816-8.388-9.72 0-5.904 3.42-9.72 8.388-9.72s8.388 3.816 8.388 9.72c0 5.904-3.42 9.72-8.388 9.72zm0-2.556c3.096 0 5.292-1.908 5.292-5.832V58.38c0-3.924-2.196-5.832-5.292-5.832-3.096 0-5.292 1.908-5.292 5.832v2.664c0 3.924 2.196 5.832 5.292 5.832zM173.548 69h-2.88V50.424h2.88v3.024h.144c.9-2.088 2.484-3.456 5.256-3.456 3.816 0 6.228 2.592 6.228 7.092V69h-2.88V57.588c0-3.312-1.44-5.004-4.212-5.004-2.304 0-4.536 1.152-4.536 3.528V69zm26.388-9.396h-9.396v-3.096h9.396v3.096zM205.48 76.2V50.424h2.88v3.024h.144c.972-2.34 2.88-3.456 5.436-3.456 4.644 0 7.56 3.78 7.56 9.72 0 5.94-2.916 9.72-7.56 9.72-2.556 0-4.32-1.152-5.436-3.456h-.144V76.2h-2.88zm7.668-9.36c3.24 0 5.256-2.232 5.256-5.544v-3.168c0-3.312-2.016-5.544-5.256-5.544-2.628 0-4.788 1.512-4.788 3.564v6.912c0 2.412 2.16 3.78 4.788 3.78zM229.24 69h-2.88V50.424h2.88v3.42h.18c.648-1.764 2.34-3.42 5.364-3.42h1.116v2.88h-1.692c-3.096 0-4.968 1.332-4.968 3.096V69zm17.172.432c-4.968 0-8.388-3.816-8.388-9.72 0-5.904 3.42-9.72 8.388-9.72s8.388 3.816 8.388 9.72c0 5.904-3.42 9.72-8.388 9.72zm0-2.556c3.096 0 5.292-1.908 5.292-5.832V58.38c0-3.924-2.196-5.832-5.292-5.832-3.096 0-5.292 1.908-5.292 5.832v2.664c0 3.924 2.196 5.832 5.292 5.832zM260.344 69V52.944h-3.024v-2.52h3.024V46.68c0-2.556 1.332-4.32 4.068-4.32h2.808v2.52h-3.996v5.544h10.404V69h-2.88V52.944h-7.524V69h-2.88zm11.844-22.932c-1.224 0-1.764-.648-1.764-1.62v-.468c0-.972.54-1.62 1.764-1.62s1.764.648 1.764 1.62v.468c0 .972-.54 1.62-1.764 1.62zM287.452 69h-3.6c-1.98 0-3.06-1.26-3.06-3.06V52.944h-3.06v-2.52h1.728c1.224 0 1.62-.432 1.62-1.692v-3.456h2.592v5.148h4.068v2.52h-4.068V66.48h3.78V69zm-141.264 31.088c0 7.452-4.932 13.284-8.964 15.912h-3.888c5.364-3.924 8.352-7.2 9.72-13.032l-.18-.072c-1.188 2.052-2.988 3.6-6.048 3.6-4.32 0-7.416-2.988-7.416-7.74 0-4.932 3.312-8.316 8.352-8.316 5.22 0 8.424 3.672 8.424 9.648zm-8.388 3.852c3.312 0 5.256-1.908 5.256-5.292v-.288c0-3.384-1.944-5.292-5.256-5.292-3.312 0-5.256 1.908-5.256 5.292v.288c0 3.384 1.944 5.292 5.256 5.292zm16.056-2.304c-1.512 0-2.196-.864-2.196-2.088v-.468c0-1.224.684-2.088 2.196-2.088s2.196.864 2.196 2.088v.468c0 1.224-.684 2.088-2.196 2.088zm0 14.796c-1.512 0-2.196-.864-2.196-2.088v-.468c0-1.224.684-2.088 2.196-2.088s2.196.864 2.196 2.088v.468c0 1.224-.684 2.088-2.196 2.088zm16.056 0c-6.012 0-8.64-4.788-8.64-12.996s2.628-12.996 8.64-12.996c6.012 0 8.64 4.788 8.64 12.996s-2.628 12.996-8.64 12.996zm0-2.628c3.924 0 5.472-3.456 5.472-8.316v-4.104c0-4.86-1.548-8.316-5.472-8.316-3.924 0-5.472 3.456-5.472 8.316v4.104c0 4.86 1.548 8.316 5.472 8.316zm21.6 2.628c-6.012 0-8.64-4.788-8.64-12.996s2.628-12.996 8.64-12.996c6.012 0 8.64 4.788 8.64 12.996s-2.628 12.996-8.64 12.996zm0-2.628c3.924 0 5.472-3.456 5.472-8.316v-4.104c0-4.86-1.548-8.316-5.472-8.316-3.924 0-5.472 3.456-5.472 8.316v4.104c0 4.86 1.548 8.316 5.472 8.316zm30.672-7.38h-18.576v-2.736h18.576v2.736zm19.224-15.552v2.664h-11.016l-.72 9.576h.252c1.188-1.692 2.52-2.772 5.148-2.772 4.32 0 7.488 2.916 7.488 7.776 0 4.896-3.168 8.316-8.46 8.316-4.176 0-6.336-2.124-7.848-4.284l2.268-1.728c1.296 1.98 2.556 3.312 5.58 3.312 3.42 0 5.256-1.908 5.256-5.22v-.36c0-3.312-1.836-5.22-5.256-5.22-2.304 0-3.456.972-4.5 2.124l-2.556-.36.9-13.824h13.464zm8.928 10.764c-1.512 0-2.196-.864-2.196-2.088v-.468c0-1.224.684-2.088 2.196-2.088s2.196.864 2.196 2.088v.468c0 1.224-.684 2.088-2.196 2.088zm0 14.796c-1.512 0-2.196-.864-2.196-2.088v-.468c0-1.224.684-2.088 2.196-2.088s2.196.864 2.196 2.088v.468c0 1.224-.684 2.088-2.196 2.088zm16.056 0c-6.012 0-8.64-4.788-8.64-12.996s2.628-12.996 8.64-12.996c6.012 0 8.64 4.788 8.64 12.996s-2.628 12.996-8.64 12.996zm0-2.628c3.924 0 5.472-3.456 5.472-8.316v-4.104c0-4.86-1.548-8.316-5.472-8.316-3.924 0-5.472 3.456-5.472 8.316v4.104c0 4.86 1.548 8.316 5.472 8.316zm21.6 2.628c-6.012 0-8.64-4.788-8.64-12.996s2.628-12.996 8.64-12.996c6.012 0 8.64 4.788 8.64 12.996s-2.628 12.996-8.64 12.996zm0-2.628c3.924 0 5.472-3.456 5.472-8.316v-4.104c0-4.86-1.548-8.316-5.472-8.316-3.924 0-5.472 3.456-5.472 8.316v4.104c0 4.86 1.548 8.316 5.472 8.316zM130.348 163v-25.128h4.032l7.2 13.536h.18l7.236-13.536h3.888V163h-2.952v-21.168h-.18l-2.124 4.212-6.012 10.944-6.012-10.944-2.124-4.212h-.18V163h-2.952zm44.064 0h-1.62c-2.124 0-2.988-1.296-3.204-3.024h-.18c-.792 2.268-2.772 3.456-5.364 3.456-3.924 0-6.228-2.16-6.228-5.616 0-3.492 2.52-5.436 7.92-5.436h3.672v-1.836c0-2.628-1.44-4.068-4.392-4.068-2.232 0-3.708 1.08-4.716 2.772l-1.728-1.62c1.008-1.98 3.24-3.636 6.588-3.636 4.464 0 7.128 2.34 7.128 6.264v10.224h2.124V163zm-9.9-2.016c2.844 0 4.896-1.476 4.896-3.384v-3.06h-3.816c-3.276 0-4.752 1.008-4.752 2.808v.756c0 1.836 1.44 2.88 3.672 2.88zm20.772-3.924l4.5-12.636h2.844l-8.316 22.896c-.828 2.232-1.584 2.88-4.32 2.88h-1.476v-2.52h2.916l1.404-3.96-6.948-19.296h2.88l4.464 12.636.864 3.024h.18l1.008-3.024zm35.64 3.276V163h-16.488v-3.096l8.208-7.56c2.34-2.16 4.14-4.68 4.14-7.092v-.432c0-2.772-1.548-4.68-4.644-4.68s-4.536 1.872-5.22 4.248l-2.7-1.044c.972-2.952 3.204-5.904 8.064-5.904 4.896 0 7.704 3.024 7.704 7.308 0 3.888-2.304 6.624-5.508 9.504l-6.768 6.084h13.212zm9.072-11.808h2.736c3.384 0 5.112-1.764 5.112-4.176v-.252c0-2.628-1.836-3.96-4.5-3.96-2.592 0-4.14 1.224-5.184 3.132l-2.232-1.728c1.26-2.016 3.456-4.104 7.488-4.104 4.248 0 7.632 2.268 7.632 6.336 0 3.24-2.16 5.184-4.824 5.868v.144c2.7.54 5.292 2.556 5.292 6.336 0 4.32-3.42 7.308-8.532 7.308-4.356 0-6.588-2.124-8.136-4.284l2.268-1.728c1.296 1.98 2.772 3.312 5.832 3.312 3.528 0 5.4-1.692 5.4-4.644v-.288c0-2.952-1.872-4.644-5.4-4.644h-2.952v-2.628zm34.812 4.896h-18.576v-2.736h18.576v2.736zm20.484 6.912V163h-16.488v-3.096l8.208-7.56c2.34-2.16 4.14-4.68 4.14-7.092v-.432c0-2.772-1.548-4.68-4.644-4.68s-4.536 1.872-5.22 4.248l-2.7-1.044c.972-2.952 3.204-5.904 8.064-5.904 4.896 0 7.704 3.024 7.704 7.308 0 3.888-2.304 6.624-5.508 9.504l-6.768 6.084h13.212zm13.212 3.096c-5.724 0-8.712-3.132-8.712-7.272 0-3.42 2.052-5.4 5.076-6.228v-.288c-2.628-.9-4.32-3.024-4.32-5.904 0-3.816 2.952-6.3 7.956-6.3 5.004 0 7.956 2.484 7.956 6.3 0 2.88-1.692 5.004-4.32 5.904v.288c3.024.828 5.076 2.808 5.076 6.228 0 4.14-2.988 7.272-8.712 7.272zm0-2.628c3.492 0 5.508-1.656 5.508-4.5v-.756c0-2.844-2.016-4.5-5.508-4.5s-5.508 1.656-5.508 4.5v.756c0 2.844 2.016 4.5 5.508 4.5zm0-12.276c3.132 0 4.824-1.404 4.824-3.96v-.54c0-2.556-1.692-3.96-4.824-3.96-3.132 0-4.824 1.404-4.824 3.96v.54c0 2.556 1.692 3.96 4.824 3.96zM146.692 210h-16.524v-2.664h7.02v-20.232h-.252l-6.336 5.904-1.764-1.908 6.66-6.228h4.716v22.464h6.48V210zm21.096-15.912c0 7.452-4.932 13.284-8.964 15.912h-3.888c5.364-3.924 8.352-7.2 9.72-13.032l-.18-.072c-1.188 2.052-2.988 3.6-6.048 3.6-4.32 0-7.416-2.988-7.416-7.74 0-4.932 3.312-8.316 8.352-8.316 5.22 0 8.424 3.672 8.424 9.648zm-8.388 3.852c3.312 0 5.256-1.908 5.256-5.292v-.288c0-3.384-1.944-5.292-5.256-5.292-3.312 0-5.256 1.908-5.256 5.292v.288c0 3.384 1.944 5.292 5.256 5.292zm21.6 12.492c-5.724 0-8.712-3.132-8.712-7.272 0-3.42 2.052-5.4 5.076-6.228v-.288c-2.628-.9-4.32-3.024-4.32-5.904 0-3.816 2.952-6.3 7.956-6.3 5.004 0 7.956 2.484 7.956 6.3 0 2.88-1.692 5.004-4.32 5.904v.288c3.024.828 5.076 2.808 5.076 6.228 0 4.14-2.988 7.272-8.712 7.272zm0-2.628c3.492 0 5.508-1.656 5.508-4.5v-.756c0-2.844-2.016-4.5-5.508-4.5s-5.508 1.656-5.508 4.5v.756c0 2.844 2.016 4.5 5.508 4.5zm0-12.276c3.132 0 4.824-1.404 4.824-3.96v-.54c0-2.556-1.692-3.96-4.824-3.96-3.132 0-4.824 1.404-4.824 3.96v.54c0 2.556 1.692 3.96 4.824 3.96zm21.6 14.904c-6.012 0-8.64-4.788-8.64-12.996s2.628-12.996 8.64-12.996c6.012 0 8.64 4.788 8.64 12.996s-2.628 12.996-8.64 12.996zm0-2.628c3.924 0 5.472-3.456 5.472-8.316v-4.104c0-4.86-1.548-8.316-5.472-8.316-3.924 0-5.472 3.456-5.472 8.316v4.104c0 4.86 1.548 8.316 5.472 8.316zm30.672-7.38h-18.576v-2.736h18.576v2.736zm20.484 6.912V210h-16.488v-3.096l8.208-7.56c2.34-2.16 4.14-4.68 4.14-7.092v-.432c0-2.772-1.548-4.68-4.644-4.68s-4.536 1.872-5.22 4.248l-2.7-1.044c.972-2.952 3.204-5.904 8.064-5.904 4.896 0 7.704 3.024 7.704 7.308 0 3.888-2.304 6.624-5.508 9.504l-6.768 6.084h13.212zm13.212 3.096c-6.012 0-8.64-4.788-8.64-12.996s2.628-12.996 8.64-12.996c6.012 0 8.64 4.788 8.64 12.996s-2.628 12.996-8.64 12.996zm0-2.628c3.924 0 5.472-3.456 5.472-8.316v-4.104c0-4.86-1.548-8.316-5.472-8.316-3.924 0-5.472 3.456-5.472 8.316v4.104c0 4.86 1.548 8.316 5.472 8.316zM297.46 210h-16.524v-2.664h7.02v-20.232h-.252l-6.336 5.904-1.764-1.908 6.66-6.228h4.716v22.464h6.48V210zm12.744.432c-5.22 0-8.424-3.672-8.424-9.648 0-7.452 4.932-13.284 8.964-15.912h3.888c-5.364 3.924-8.352 7.2-9.72 13.032l.18.072c1.188-2.052 2.988-3.6 6.048-3.6 4.32 0 7.416 2.988 7.416 7.74 0 4.932-3.312 8.316-8.352 8.316zm-.036-2.628c3.312 0 5.256-1.908 5.256-5.292v-.288c0-3.384-1.944-5.292-5.256-5.292-3.312 0-5.256 1.908-5.256 5.292v.288c0 3.384 1.944 5.292 5.256 5.292z" fill="#3D3D3D"/></g></svg>

<?xml version="1.0" encoding="UTF-8"?>
<svg width="448px" height="248px" viewBox="0 0 448 248" version="1.1" xmlns="http://www.w3.org/2000/svg" xmlns:xlink="http://www.w3.org/1999/xlink">
    <!-- Generator: Sketch 51.2 (57519) - http://www.bohemiancoding.com/sketch -->
    <title>Hyphen &amp; En Dash - right_Desktop</title>
    <desc>Created with Sketch.</desc>
    <defs></defs>
    <g id="Page-1" stroke="none" stroke-width="1" fill="none" fill-rule="evenodd">
        <g id="Type-Basics-Copy" transform="translate(-352.000000, -6261.000000)">
            <g id="Hyphen-&amp;-En-Dash---right_Desktop" transform="translate(352.000000, 6261.000000)">
                <rect id="Rectangle-16-Copy-167" fill="#FFFFFF" x="0" y="0" width="448" height="248"></rect>
                <path d="M132.94,69 L130.06,69 L130.06,50.424 L132.94,50.424 L132.94,53.448 L133.084,53.448 C133.984,51.36 135.568,49.992 138.34,49.992 C142.156,49.992 144.568,52.584 144.568,57.084 L144.568,69 L141.688,69 L141.688,57.588 C141.688,54.276 140.248,52.584 137.476,52.584 C135.172,52.584 132.94,53.736 132.94,56.112 L132.94,69 Z M157.528,69.432 C152.56,69.432 149.14,65.616 149.14,59.712 C149.14,53.808 152.56,49.992 157.528,49.992 C162.496,49.992 165.916,53.808 165.916,59.712 C165.916,65.616 162.496,69.432 157.528,69.432 Z M157.528,66.876 C160.624,66.876 162.82,64.968 162.82,61.044 L162.82,58.38 C162.82,54.456 160.624,52.548 157.528,52.548 C154.432,52.548 152.236,54.456 152.236,58.38 L152.236,61.044 C152.236,64.968 154.432,66.876 157.528,66.876 Z M173.548,69 L170.668,69 L170.668,50.424 L173.548,50.424 L173.548,53.448 L173.692,53.448 C174.592,51.36 176.176,49.992 178.948,49.992 C182.764,49.992 185.176,52.584 185.176,57.084 L185.176,69 L182.296,69 L182.296,57.588 C182.296,54.276 180.856,52.584 178.084,52.584 C175.78,52.584 173.548,53.736 173.548,56.112 L173.548,69 Z M199.936,59.604 L190.54,59.604 L190.54,56.508 L199.936,56.508 L199.936,59.604 Z M205.48,76.2 L205.48,50.424 L208.36,50.424 L208.36,53.448 L208.504,53.448 C209.476,51.108 211.384,49.992 213.94,49.992 C218.584,49.992 221.5,53.772 221.5,59.712 C221.5,65.652 218.584,69.432 213.94,69.432 C211.384,69.432 209.62,68.28 208.504,65.976 L208.36,65.976 L208.36,76.2 L205.48,76.2 Z M213.148,66.84 C216.388,66.84 218.404,64.608 218.404,61.296 L218.404,58.128 C218.404,54.816 216.388,52.584 213.148,52.584 C210.52,52.584 208.36,54.096 208.36,56.148 L208.36,63.06 C208.36,65.472 210.52,66.84 213.148,66.84 Z M229.24,69 L226.36,69 L226.36,50.424 L229.24,50.424 L229.24,53.844 L229.42,53.844 C230.068,52.08 231.76,50.424 234.784,50.424 L235.9,50.424 L235.9,53.304 L234.208,53.304 C231.112,53.304 229.24,54.636 229.24,56.4 L229.24,69 Z M246.412,69.432 C241.444,69.432 238.024,65.616 238.024,59.712 C238.024,53.808 241.444,49.992 246.412,49.992 C251.38,49.992 254.8,53.808 254.8,59.712 C254.8,65.616 251.38,69.432 246.412,69.432 Z M246.412,66.876 C249.508,66.876 251.704,64.968 251.704,61.044 L251.704,58.38 C251.704,54.456 249.508,52.548 246.412,52.548 C243.316,52.548 241.12,54.456 241.12,58.38 L241.12,61.044 C241.12,64.968 243.316,66.876 246.412,66.876 Z M260.344,69 L260.344,52.944 L257.32,52.944 L257.32,50.424 L260.344,50.424 L260.344,46.68 C260.344,44.124 261.676,42.36 264.412,42.36 L267.22,42.36 L267.22,44.88 L263.224,44.88 L263.224,50.424 L273.628,50.424 L273.628,69 L270.748,69 L270.748,52.944 L263.224,52.944 L263.224,69 L260.344,69 Z M272.188,46.068 C270.964,46.068 270.424,45.42 270.424,44.448 L270.424,43.98 C270.424,43.008 270.964,42.36 272.188,42.36 C273.412,42.36 273.952,43.008 273.952,43.98 L273.952,44.448 C273.952,45.42 273.412,46.068 272.188,46.068 Z M287.452,69 L283.852,69 C281.872,69 280.792,67.74 280.792,65.94 L280.792,52.944 L277.732,52.944 L277.732,50.424 L279.46,50.424 C280.684,50.424 281.08,49.992 281.08,48.732 L281.08,45.276 L283.672,45.276 L283.672,50.424 L287.74,50.424 L287.74,52.944 L283.672,52.944 L283.672,66.48 L287.452,66.48 L287.452,69 Z M146.188,100.088 C146.188,107.54 141.256,113.372 137.224,116 L133.336,116 C138.7,112.076 141.688,108.8 143.056,102.968 L142.876,102.896 C141.688,104.948 139.888,106.496 136.828,106.496 C132.508,106.496 129.412,103.508 129.412,98.756 C129.412,93.824 132.724,90.44 137.764,90.44 C142.984,90.44 146.188,94.112 146.188,100.088 Z M137.8,103.94 C141.112,103.94 143.056,102.032 143.056,98.648 L143.056,98.36 C143.056,94.976 141.112,93.068 137.8,93.068 C134.488,93.068 132.544,94.976 132.544,98.36 L132.544,98.648 C132.544,102.032 134.488,103.94 137.8,103.94 Z M153.856,101.636 C152.344,101.636 151.66,100.772 151.66,99.548 L151.66,99.08 C151.66,97.856 152.344,96.992 153.856,96.992 C155.368,96.992 156.052,97.856 156.052,99.08 L156.052,99.548 C156.052,100.772 155.368,101.636 153.856,101.636 Z M153.856,116.432 C152.344,116.432 151.66,115.568 151.66,114.344 L151.66,113.876 C151.66,112.652 152.344,111.788 153.856,111.788 C155.368,111.788 156.052,112.652 156.052,113.876 L156.052,114.344 C156.052,115.568 155.368,116.432 153.856,116.432 Z M169.912,116.432 C163.9,116.432 161.272,111.644 161.272,103.436 C161.272,95.228 163.9,90.44 169.912,90.44 C175.924,90.44 178.552,95.228 178.552,103.436 C178.552,111.644 175.924,116.432 169.912,116.432 Z M169.912,113.804 C173.836,113.804 175.384,110.348 175.384,105.488 L175.384,101.384 C175.384,96.524 173.836,93.068 169.912,93.068 C165.988,93.068 164.44,96.524 164.44,101.384 L164.44,105.488 C164.44,110.348 165.988,113.804 169.912,113.804 Z M191.512,116.432 C185.5,116.432 182.872,111.644 182.872,103.436 C182.872,95.228 185.5,90.44 191.512,90.44 C197.524,90.44 200.152,95.228 200.152,103.436 C200.152,111.644 197.524,116.432 191.512,116.432 Z M191.512,113.804 C195.436,113.804 196.984,110.348 196.984,105.488 L196.984,101.384 C196.984,96.524 195.436,93.068 191.512,93.068 C187.588,93.068 186.04,96.524 186.04,101.384 L186.04,105.488 C186.04,110.348 187.588,113.804 191.512,113.804 Z M222.184,106.424 L203.608,106.424 L203.608,103.688 L222.184,103.688 L222.184,106.424 Z M241.408,90.872 L241.408,93.536 L230.392,93.536 L229.672,103.112 L229.924,103.112 C231.112,101.42 232.444,100.34 235.072,100.34 C239.392,100.34 242.56,103.256 242.56,108.116 C242.56,113.012 239.392,116.432 234.1,116.432 C229.924,116.432 227.764,114.308 226.252,112.148 L228.52,110.42 C229.816,112.4 231.076,113.732 234.1,113.732 C237.52,113.732 239.356,111.824 239.356,108.512 L239.356,108.152 C239.356,104.84 237.52,102.932 234.1,102.932 C231.796,102.932 230.644,103.904 229.6,105.056 L227.044,104.696 L227.944,90.872 L241.408,90.872 Z M250.336,101.636 C248.824,101.636 248.14,100.772 248.14,99.548 L248.14,99.08 C248.14,97.856 248.824,96.992 250.336,96.992 C251.848,96.992 252.532,97.856 252.532,99.08 L252.532,99.548 C252.532,100.772 251.848,101.636 250.336,101.636 Z M250.336,116.432 C248.824,116.432 248.14,115.568 248.14,114.344 L248.14,113.876 C248.14,112.652 248.824,111.788 250.336,111.788 C251.848,111.788 252.532,112.652 252.532,113.876 L252.532,114.344 C252.532,115.568 251.848,116.432 250.336,116.432 Z M266.392,116.432 C260.38,116.432 257.752,111.644 257.752,103.436 C257.752,95.228 260.38,90.44 266.392,90.44 C272.404,90.44 275.032,95.228 275.032,103.436 C275.032,111.644 272.404,116.432 266.392,116.432 Z M266.392,113.804 C270.316,113.804 271.864,110.348 271.864,105.488 L271.864,101.384 C271.864,96.524 270.316,93.068 266.392,93.068 C262.468,93.068 260.92,96.524 260.92,101.384 L260.92,105.488 C260.92,110.348 262.468,113.804 266.392,113.804 Z M287.992,116.432 C281.98,116.432 279.352,111.644 279.352,103.436 C279.352,95.228 281.98,90.44 287.992,90.44 C294.004,90.44 296.632,95.228 296.632,103.436 C296.632,111.644 294.004,116.432 287.992,116.432 Z M287.992,113.804 C291.916,113.804 293.464,110.348 293.464,105.488 L293.464,101.384 C293.464,96.524 291.916,93.068 287.992,93.068 C284.068,93.068 282.52,96.524 282.52,101.384 L282.52,105.488 C282.52,110.348 284.068,113.804 287.992,113.804 Z M130.348,163 L130.348,137.872 L134.38,137.872 L141.58,151.408 L141.76,151.408 L148.996,137.872 L152.884,137.872 L152.884,163 L149.932,163 L149.932,141.832 L149.752,141.832 L147.628,146.044 L141.616,156.988 L135.604,146.044 L133.48,141.832 L133.3,141.832 L133.3,163 L130.348,163 Z M174.412,163 L172.792,163 C170.668,163 169.804,161.704 169.588,159.976 L169.408,159.976 C168.616,162.244 166.636,163.432 164.044,163.432 C160.12,163.432 157.816,161.272 157.816,157.816 C157.816,154.324 160.336,152.38 165.736,152.38 L169.408,152.38 L169.408,150.544 C169.408,147.916 167.968,146.476 165.016,146.476 C162.784,146.476 161.308,147.556 160.3,149.248 L158.572,147.628 C159.58,145.648 161.812,143.992 165.16,143.992 C169.624,143.992 172.288,146.332 172.288,150.256 L172.288,160.48 L174.412,160.48 L174.412,163 Z M164.512,160.984 C167.356,160.984 169.408,159.508 169.408,157.6 L169.408,154.54 L165.592,154.54 C162.316,154.54 160.84,155.548 160.84,157.348 L160.84,158.104 C160.84,159.94 162.28,160.984 164.512,160.984 Z M185.284,157.06 L189.784,144.424 L192.628,144.424 L184.312,167.32 C183.484,169.552 182.728,170.2 179.992,170.2 L178.516,170.2 L178.516,167.68 L181.432,167.68 L182.836,163.72 L175.888,144.424 L178.768,144.424 L183.232,157.06 L184.096,160.084 L184.276,160.084 L185.284,157.06 Z M220.924,160.336 L220.924,163 L204.436,163 L204.436,159.904 L212.644,152.344 C214.984,150.184 216.784,147.664 216.784,145.252 L216.784,144.82 C216.784,142.048 215.236,140.14 212.14,140.14 C209.044,140.14 207.604,142.012 206.92,144.388 L204.22,143.344 C205.192,140.392 207.424,137.44 212.284,137.44 C217.18,137.44 219.988,140.464 219.988,144.748 C219.988,148.636 217.684,151.372 214.48,154.252 L207.712,160.336 L220.924,160.336 Z M229.996,148.528 L232.732,148.528 C236.116,148.528 237.844,146.764 237.844,144.352 L237.844,144.1 C237.844,141.472 236.008,140.14 233.344,140.14 C230.752,140.14 229.204,141.364 228.16,143.272 L225.928,141.544 C227.188,139.528 229.384,137.44 233.416,137.44 C237.664,137.44 241.048,139.708 241.048,143.776 C241.048,147.016 238.888,148.96 236.224,149.644 L236.224,149.788 C238.924,150.328 241.516,152.344 241.516,156.124 C241.516,160.444 238.096,163.432 232.984,163.432 C228.628,163.432 226.396,161.308 224.848,159.148 L227.116,157.42 C228.412,159.4 229.888,160.732 232.948,160.732 C236.476,160.732 238.348,159.04 238.348,156.088 L238.348,155.8 C238.348,152.848 236.476,151.156 232.948,151.156 L229.996,151.156 L229.996,148.528 Z M264.808,153.424 L246.232,153.424 L246.232,150.688 L264.808,150.688 L264.808,153.424 Z M285.292,160.336 L285.292,163 L268.804,163 L268.804,159.904 L277.012,152.344 C279.352,150.184 281.152,147.664 281.152,145.252 L281.152,144.82 C281.152,142.048 279.604,140.14 276.508,140.14 C273.412,140.14 271.972,142.012 271.288,144.388 L268.588,143.344 C269.56,140.392 271.792,137.44 276.652,137.44 C281.548,137.44 284.356,140.464 284.356,144.748 C284.356,148.636 282.052,151.372 278.848,154.252 L272.08,160.336 L285.292,160.336 Z M298.504,163.432 C292.78,163.432 289.792,160.3 289.792,156.16 C289.792,152.74 291.844,150.76 294.868,149.932 L294.868,149.644 C292.24,148.744 290.548,146.62 290.548,143.74 C290.548,139.924 293.5,137.44 298.504,137.44 C303.508,137.44 306.46,139.924 306.46,143.74 C306.46,146.62 304.768,148.744 302.14,149.644 L302.14,149.932 C305.164,150.76 307.216,152.74 307.216,156.16 C307.216,160.3 304.228,163.432 298.504,163.432 Z M298.504,160.804 C301.996,160.804 304.012,159.148 304.012,156.304 L304.012,155.548 C304.012,152.704 301.996,151.048 298.504,151.048 C295.012,151.048 292.996,152.704 292.996,155.548 L292.996,156.304 C292.996,159.148 295.012,160.804 298.504,160.804 Z M298.504,148.528 C301.636,148.528 303.328,147.124 303.328,144.568 L303.328,144.028 C303.328,141.472 301.636,140.068 298.504,140.068 C295.372,140.068 293.68,141.472 293.68,144.028 L293.68,144.568 C293.68,147.124 295.372,148.528 298.504,148.528 Z M146.692,210 L130.168,210 L130.168,207.336 L137.188,207.336 L137.188,187.104 L136.936,187.104 L130.6,193.008 L128.836,191.1 L135.496,184.872 L140.212,184.872 L140.212,207.336 L146.692,207.336 L146.692,210 Z M167.788,194.088 C167.788,201.54 162.856,207.372 158.824,210 L154.936,210 C160.3,206.076 163.288,202.8 164.656,196.968 L164.476,196.896 C163.288,198.948 161.488,200.496 158.428,200.496 C154.108,200.496 151.012,197.508 151.012,192.756 C151.012,187.824 154.324,184.44 159.364,184.44 C164.584,184.44 167.788,188.112 167.788,194.088 Z M159.4,197.94 C162.712,197.94 164.656,196.032 164.656,192.648 L164.656,192.36 C164.656,188.976 162.712,187.068 159.4,187.068 C156.088,187.068 154.144,188.976 154.144,192.36 L154.144,192.648 C154.144,196.032 156.088,197.94 159.4,197.94 Z M181,210.432 C175.276,210.432 172.288,207.3 172.288,203.16 C172.288,199.74 174.34,197.76 177.364,196.932 L177.364,196.644 C174.736,195.744 173.044,193.62 173.044,190.74 C173.044,186.924 175.996,184.44 181,184.44 C186.004,184.44 188.956,186.924 188.956,190.74 C188.956,193.62 187.264,195.744 184.636,196.644 L184.636,196.932 C187.66,197.76 189.712,199.74 189.712,203.16 C189.712,207.3 186.724,210.432 181,210.432 Z M181,207.804 C184.492,207.804 186.508,206.148 186.508,203.304 L186.508,202.548 C186.508,199.704 184.492,198.048 181,198.048 C177.508,198.048 175.492,199.704 175.492,202.548 L175.492,203.304 C175.492,206.148 177.508,207.804 181,207.804 Z M181,195.528 C184.132,195.528 185.824,194.124 185.824,191.568 L185.824,191.028 C185.824,188.472 184.132,187.068 181,187.068 C177.868,187.068 176.176,188.472 176.176,191.028 L176.176,191.568 C176.176,194.124 177.868,195.528 181,195.528 Z M202.6,210.432 C196.588,210.432 193.96,205.644 193.96,197.436 C193.96,189.228 196.588,184.44 202.6,184.44 C208.612,184.44 211.24,189.228 211.24,197.436 C211.24,205.644 208.612,210.432 202.6,210.432 Z M202.6,207.804 C206.524,207.804 208.072,204.348 208.072,199.488 L208.072,195.384 C208.072,190.524 206.524,187.068 202.6,187.068 C198.676,187.068 197.128,190.524 197.128,195.384 L197.128,199.488 C197.128,204.348 198.676,207.804 202.6,207.804 Z M233.272,200.424 L214.696,200.424 L214.696,197.688 L233.272,197.688 L233.272,200.424 Z M253.756,207.336 L253.756,210 L237.268,210 L237.268,206.904 L245.476,199.344 C247.816,197.184 249.616,194.664 249.616,192.252 L249.616,191.82 C249.616,189.048 248.068,187.14 244.972,187.14 C241.876,187.14 240.436,189.012 239.752,191.388 L237.052,190.344 C238.024,187.392 240.256,184.44 245.116,184.44 C250.012,184.44 252.82,187.464 252.82,191.748 C252.82,195.636 250.516,198.372 247.312,201.252 L240.544,207.336 L253.756,207.336 Z M266.968,210.432 C260.956,210.432 258.328,205.644 258.328,197.436 C258.328,189.228 260.956,184.44 266.968,184.44 C272.98,184.44 275.608,189.228 275.608,197.436 C275.608,205.644 272.98,210.432 266.968,210.432 Z M266.968,207.804 C270.892,207.804 272.44,204.348 272.44,199.488 L272.44,195.384 C272.44,190.524 270.892,187.068 266.968,187.068 C263.044,187.068 261.496,190.524 261.496,195.384 L261.496,199.488 C261.496,204.348 263.044,207.804 266.968,207.804 Z M297.46,210 L280.936,210 L280.936,207.336 L287.956,207.336 L287.956,187.104 L287.704,187.104 L281.368,193.008 L279.604,191.1 L286.264,184.872 L290.98,184.872 L290.98,207.336 L297.46,207.336 L297.46,210 Z M310.204,210.432 C304.984,210.432 301.78,206.76 301.78,200.784 C301.78,193.332 306.712,187.5 310.744,184.872 L314.632,184.872 C309.268,188.796 306.28,192.072 304.912,197.904 L305.092,197.976 C306.28,195.924 308.08,194.376 311.14,194.376 C315.46,194.376 318.556,197.364 318.556,202.116 C318.556,207.048 315.244,210.432 310.204,210.432 Z M310.168,207.804 C313.48,207.804 315.424,205.896 315.424,202.512 L315.424,202.224 C315.424,198.84 313.48,196.932 310.168,196.932 C306.856,196.932 304.912,198.84 304.912,202.224 L304.912,202.512 C304.912,205.896 306.856,207.804 310.168,207.804 Z" id="non-proﬁt-9:00–5:00" fill="#3D3D3D"></path>
            </g>
        </g>
    </g>
</svg>
